X: 1
T: Kulkurin Kaiho
O: kansanlaulu
M: 3/4
L: 1/8
K: Dm
z2 a2 \
| "A7"(3gag eg eg | [b2g2] [a2f2] [g2e2] | "Dm"(3fgf df df |  [a2f2] [g2e2] [f2d2] \
| "A7"(3efe ^ce ce | [g2B2] [f2A2] [e2G2] | "Dm"[d6-F6-] | [d2F2] :|
z2 AA \
| "Dm"A6 | d4 ^c2 | "A7"e6- | e2 ^c2 B2 \
| "Dm"A6 | f4 d2 | "A7"e6- | e2 f2 e2 |
| "Dm"d6 | "D7"a4 a2 | "Gm"b6- | b2 a2 g2 \
| "Dm"f6 | "A7"e4 ^c2 | "Dm"d6- | d2 |]
|: a3 f \
| "Dm"d6- | d2 a2 gf | "A7"e6- | e4 z2 \
| g4 g2 | g4 ag  | "Dm"f6- | f2 a^g af |
| "Dm"d6- | "D7"d2 A3 c | "Gm"B6- | B2 g2 b2 \
| "Dm"a3 g f2 | "A7"e4 ^c2 | "Dm"d6- | d2 :|
